bestshop/images/icons/icon-res-guide-video-03.svg

<svg xmlns="http://www.w3.org/2000/svg" width="80" height="80" viewBox="0 0 80 80">
  <g id="그룹_1253" data-name="그룹 1253" transform="translate(-442 -384)">
    <g id="그룹_1259" data-name="그룹 1259">
      <rect id="사각형_827" data-name="사각형 827" width="80" height="80" transform="translate(442 384)" fill="none"/>
      <g id="그룹_1253-2" data-name="그룹 1253" transform="translate(-715 38)">
        <g id="사각형_355" data-name="사각형 355" transform="translate(1167 364)" fill="#fff" stroke="#000" stroke-width="1.5">
          <rect width="60" height="42" rx="2" stroke="none"/>
          <rect x="0.75" y="0.75" width="58.5" height="40.5" rx="1.25" fill="none"/>
        </g>
        <circle id="타원_98" data-name="타원 98" cx="1.5" cy="1.5" r="1.5" transform="translate(1171 367)"/>
        <path id="패스_207" data-name="패스 207" d="M1.5,0A1.5,1.5,0,1,1,0,1.5,1.5,1.5,0,0,1,1.5,0Z" transform="translate(1176 367)"/>
        <path id="패스_215" data-name="패스 215" d="M1.5,0A1.5,1.5,0,1,1,0,1.5,1.5,1.5,0,0,1,1.5,0Z" transform="translate(1181 367)"/>
        <g id="패스_210" data-name="패스 210" transform="translate(1167 371.448)" fill="#fff">
          <path d="M 58 35.80224990844727 L 1.999998331069946 35.80224990844727 C 1.310748338699341 35.80224990844727 0.7499982714653015 35.17415237426758 0.7499982714653015 34.4021110534668 L 0.7499982714653015 2.201873540878296 C 0.7648522853851318 2.035838603973389 0.7683957815170288 1.731579661369324 0.7689882516860962 1.066611647605896 C 0.7690908312797546 0.9517442584037781 0.7691847085952759 0.8466302156448364 0.7691164016723633 0.7504397034645081 L 59.25032043457031 0.7830142974853516 C 59.25030517578125 0.8209167718887329 59.25029373168945 0.8596813082695007 59.25027847290039 0.8991716504096985 L 59.25 2.15015172958374 L 59.25 34.4021110534668 C 59.25 35.17415237426758 58.68924713134766 35.80224990844727 58 35.80224990844727 Z" stroke="none"/>
          <path d="M 1.51824951171875 1.500858306884766 C 1.516986846923828 1.845142364501953 1.513248443603516 2.071334838867188 1.5 2.239158630371094 L 1.5 34.4021110534668 C 1.5 34.75452041625977 1.728969573974609 35.05224227905273 2 35.05224227905273 L 58 35.05224227905273 C 58.27102661132812 35.05224227905273 58.5 34.75452041625977 58.5 34.4021110534668 L 58.50013732910156 1.532596588134766 L 1.51824951171875 1.500858306884766 M 0.000530242919921875 -0.000270843505859375 C 0.000705718994140625 -0.000270843505859375 0.000881195068359375 -0.00017547607421875 0.001056671142578125 1.1444091796875e-05 L 0 1.1444091796875e-05 C 0.000179290771484375 -0.000179290771484375 0.000354766845703125 -0.000270843505859375 0.000530242919921875 -0.000270843505859375 Z M 0 1.1444091796875e-05 L 60 0.0334320068359375 C 60 0.0334320068359375 60 0.0334320068359375 60 0.0334320068359375 C 60.0009765625 0.03340530395507812 60 0.963531494140625 60 2.150142669677734 L 60 34.4021110534668 C 60 35.58959197998047 59.10456848144531 36.55224227905273 58 36.55224227905273 L 2 36.55224227905273 C 0.8954277038574219 36.55224227905273 0 35.58959197998047 0 34.4021110534668 L 0 2.150142669677734 C 0.02313995361328125 2.150142669677734 0.02709197998046875 0.02830123901367188 0.001056671142578125 1.1444091796875e-05 Z" stroke="none" fill="#000"/>
        </g>
        <g id="사각형_356" data-name="사각형 356" transform="translate(1176 392)" fill="none" stroke="#000" stroke-width="1.5">
          <rect width="17" height="11" rx="2" stroke="none"/>
          <rect x="0.75" y="0.75" width="15.5" height="9.5" rx="1.25" fill="none"/>
        </g>
        <rect id="사각형_357" data-name="사각형 357" width="22" height="1" rx="0.5" transform="translate(1196 393)"/>
        <rect id="사각형_358" data-name="사각형 358" width="22" height="1" rx="0.5" transform="translate(1196 397)"/>
        <rect id="사각형_359" data-name="사각형 359" width="22" height="1" rx="0.5" transform="translate(1196 401)"/>
        <g id="사각형_354" data-name="사각형 354" transform="translate(1174 377)" fill="#fff" stroke="#000" stroke-width="1.5">
          <rect width="46" height="12" rx="2" stroke="none"/>
          <rect x="0.75" y="0.75" width="44.5" height="10.5" rx="1.25" fill="none"/>
        </g>
        <g id="패스_209" data-name="패스 209" transform="translate(1186.3 378.2)" fill="#fff" stroke-linecap="round" stroke-linejoin="round">
          <path d="M 12.22475337982178 18.27334976196289 L 11.93445301055908 17.58181953430176 L 10.71180534362793 14.66940116882324 L 9.721282958984375 15.62690925598145 L 8.450013160705566 16.85581016540527 L 8.450013160705566 15.08766937255859 L 8.450013160705566 7.299989700317383 L 8.450013160705566 5.489329814910889 L 9.730342864990234 6.769659519195557 L 15.43204307556152 12.47135925292969 L 16.71237373352051 13.75168991088867 L 14.90171337127686 13.75168991088867 L 13.46166610717773 13.75168991088867 L 14.59983348846436 16.46290016174316 L 14.89014339447021 17.15444946289062 L 14.19859313964844 17.44474983215332 L 12.91628360748291 17.9830493927002 L 12.22475337982178 18.27334976196289 Z" stroke="none"/>
          <path d="M 12.62598323822021 17.2915096282959 L 13.90829372406006 16.75321006774902 L 12.33340358734131 13.00168991088867 L 14.90171337127686 13.00168991088867 L 9.200013160705566 7.299989700317383 L 9.200013160705566 15.08766937255859 L 10.97890281677246 13.36806964874268 L 12.62598323822021 17.2915096282959 M 12.62662506103516 18.79190063476562 C 12.04056358337402 18.79190063476562 11.48397541046143 18.44636154174805 11.24291324615479 17.87212944030762 L 10.44470024108887 15.97074031829834 L 10.2425537109375 16.1661491394043 C 9.809661865234375 16.5846004486084 9.16853141784668 16.70367622375488 8.614263534545898 16.46858024597168 C 8.060003280639648 16.23346900939941 7.700013160705566 15.68973922729492 7.700013160705566 15.08766937255859 L 7.700013160705566 7.299989700317383 C 7.700013160705566 6.693299770355225 8.065473556518555 6.146339893341064 8.625983238220215 5.914169788360596 C 9.186501502990723 5.682000637054443 9.831672668457031 5.810328483581543 10.26067352294922 6.239329814910889 L 15.96237373352051 11.94102954864502 C 16.39137268066406 12.37002944946289 16.51970291137695 13.01519966125488 16.28753280639648 13.57571983337402 C 16.05536270141602 14.13622951507568 15.50840282440186 14.50168991088867 14.90171337127686 14.50168991088867 L 14.58991432189941 14.50168991088867 L 15.29136371612549 16.17259979248047 C 15.44535350799561 16.53940963745117 15.44732284545898 16.95237922668457 15.29682350158691 17.32064056396484 C 15.14633369445801 17.68889999389648 14.855712890625 17.9822998046875 14.48889350891113 18.13628959655762 L 13.20658302307129 18.67458915710449 C 13.01697540283203 18.75418472290039 12.82013988494873 18.79190063476562 12.62662506103516 18.79190063476562 Z" stroke="none" fill="#000"/>
        </g>
        <line id="선_28" data-name="선 28" y2="2.5" transform="translate(1193.413 380.513) rotate(-22)" fill="none" stroke="#000" stroke-linecap="round" stroke-width="1.5"/>
        <line id="선_29" data-name="선 29" y2="2.5" transform="translate(1197.783 380.491) rotate(23)" fill="none" stroke="#000" stroke-linecap="round" stroke-width="1.5"/>
        <line id="선_30" data-name="선 30" y2="2.5" transform="translate(1190.253 383.532) rotate(-67)" fill="none" stroke="#000" stroke-linecap="round" stroke-width="1.5"/>
      </g>
    </g>
  </g>
</svg>

<svg data-name="그룹 1259" xmlns="http://www.w3.org/2000/svg" width="80" height="80" viewBox="0 0 80 80">
    <path data-name="사각형 827" style="fill:none" d="M0 0h80v80H0z"/>
    <g data-name="그룹 434" transform="translate(-1157 -346)">
        <g data-name="사각형 355" transform="translate(1167 364)" style="stroke:#000;stroke-width:1.5px;fill:#fff">
            <rect width="60" height="42" rx="2" style="stroke:none"/>
            <rect x=".75" y=".75" width="58.5" height="40.5" rx="1.25" style="fill:none"/>
        </g>
        <circle data-name="타원 98" cx="1.5" cy="1.5" r="1.5" transform="translate(1171 367)" style="fill:#ff8d8d"/>
        <path data-name="패스 207" d="M1.5 0A1.5 1.5 0 1 1 0 1.5 1.5 1.5 0 0 1 1.5 0z" transform="translate(1176 367)" style="fill:#ffe457"/>
        <path data-name="패스 215" d="M1.5 0A1.5 1.5 0 1 1 0 1.5 1.5 1.5 0 0 1 1.5 0z" transform="translate(1181 367)" style="fill:#9ee37a"/>
        <g data-name="패스 210" style="fill:#ededed">
            <path d="M58 35.802H2c-.69 0-1.25-.628-1.25-1.4v-32.2c.015-.166.018-.47.019-1.135V.75L59.25.783v33.619c0 .772-.56 1.4-1.25 1.4z" style="stroke:none" transform="translate(1167 371.448)"/>
            <path d="M1.518 1.5c-.001.345-.005.571-.018.74v32.162c0 .353.229.65.5.65h56c.271 0 .5-.297.5-.65V1.532L1.518 1.502M.001 0H0zM0 0l60 .033v34.369c0 1.188-.895 2.15-2 2.15H2c-1.105 0-2-.962-2-2.15V2.15C.023 2.15.027.028.001 0z" style="fill:#000;stroke:none" transform="translate(1167 371.448)"/>
        </g>
        <rect data-name="사각형 356" width="17" height="11" rx="2" transform="translate(1176 392)" style="fill:#c3c3c3"/>
        <rect data-name="사각형 357" width="22" height="1" rx=".5" transform="translate(1196 393)" style="fill:#c3c3c3"/>
        <rect data-name="사각형 358" width="22" height="1" rx=".5" transform="translate(1196 397)" style="fill:#c3c3c3"/>
        <rect data-name="사각형 359" width="22" height="1" rx=".5" transform="translate(1196 401)" style="fill:#c3c3c3"/>
        <g data-name="사각형 354" transform="translate(1174 377)" style="stroke:#000;stroke-width:1.5px;fill:#fff">
            <rect width="46" height="12" rx="2" style="stroke:none"/>
            <rect x=".75" y=".75" width="44.5" height="10.5" rx="1.25" style="fill:none"/>
        </g>
        <g data-name="패스 209" style="stroke-linejoin:round;stroke-linecap:round;fill:#fff">
            <path d="m12.225 18.273-.29-.691-1.223-2.913-.99.958-1.272 1.229V5.49l1.28 1.28 5.702 5.701 1.28 1.28h-3.25l1.138 2.712.29.691-.691.29-1.283.539-.691.29z" style="stroke:none" transform="translate(1186.3 378.2)"/>
            <path d="m12.626 17.292 1.282-.539-1.575-3.751h2.569L9.2 7.3v7.788l1.779-1.72 1.647 3.924m0 1.5a1.5 1.5 0 0 1-1.383-.92l-.798-1.901-.202.195A1.5 1.5 0 0 1 7.7 15.088V7.3a1.5 1.5 0 0 1 2.56-1.06l5.702 5.701a1.5 1.5 0 0 1-1.06 2.56h-.312l.701 1.672a1.5 1.5 0 0 1-.802 1.963l-1.282.539c-.19.08-.387.117-.58.117z" style="fill:#000;stroke:none" transform="translate(1186.3 378.2)"/>
        </g>
        <path data-name="선 28" transform="rotate(-22 1575.491 -2879.532)" style="stroke-linecap:round;stroke:#000;stroke-width:1.5px;fill:none" d="M0 0v2.5"/>
        <path data-name="선 29" transform="rotate(23 -336.195 3133.891)" style="stroke-linecap:round;stroke:#000;stroke-width:1.5px;fill:none" d="M0 0v2.5"/>
        <path data-name="선 30" transform="rotate(-67 884.853 -707.372)" style="stroke-linecap:round;stroke:#000;stroke-width:1.5px;fill:none" d="M0 0v2.5"/>
    </g>
</svg>
